X: 1410
T: Eileen McCoy's Spanish Waltz
B: australian traditional tunes wiki
M:3/4
L:1/8
R: Swing Waltz
Q: 1/4=100
K:D
V:1 
Ad|"D"f2d2A2|"D7"FAd2c2|"G"(3BcB G2B2|"A7"A4g2|"D"(3fgf e2f2|"A7"a2 (3faf e2|"D"d3cd2|"A7"e4A3/2-d/|
"D"f2d2A2|"D7"FAd2c2|"G"(3BcB G2B2|"A7"A4g2|"D"(3fgf e2d2|"A7"e2B2c2|"D"d3dd2|"D"d4fg||
"D"a3f af|a2f2d2|"A7"(3cdc (3BcB A2|g6|g3f ga|g2 (3fgf e2|"G"d2c2 (3BcB|"A7"A4f2|
"D"a3f af|a2f2d2|"A7"(3cdc (3BcB A2|g4g2|"D"(3fgf e2d2|"A7"e2B2c2|"D"d3dd2|d4Ad||
|:"D"[F6A6]|[A6f6]|[F6d6]|[F4A4][FA]d|"A7"c2 (3BcB A2|""G4A2|"D"[F6A6]-|[F4A4]d>d|
"D"d2d2f2|"D7"a2g2f2|"G"g6|"Em"B4 (3BcB|"A7"A2c2e2|ggf2e2|1"D"f4f>f|fa fd B2:|2"D"d3dd2|d4||
% abcbook-tune_id 6342d53af222302f0c6249b1


% abcbook-boost 0
% abcbook-tablature 
% abcbook-transpose 
% abcbook-lastupdated 1665324363794
% abcbook-soundfonts 
% abcbook-repeats 1
% NFF Book 2008

